X:1
T:THE ROSE AMONG THE HEATHER  "The Lad That Wears The Plaid"
M:C
L:1/8
Q:80
C:Traditional
S:Strathspey
K:HP
|: {g}f2{GdG}f3/2e/2{Gdc}d3/2e/2{gde}d3/2B/2 | \
{g}A2{GdGe}A3/2d/2{g}c/2e3/2{A}e2 | \
{g}f2{GdG}f3/2e/2{Gdc}d3/2e/2{gde}d3/2B/2 |
{g}c2{GdG}e/2a3/2f/2d3/2{gdc}d2 :: \
{gBd}B3/2A/2{g}G3/2{d}B/2{g}A2{GdGe}A2 | \
{gBd}B/2{e}A3/2{g}((3Bcd){g}c/2e3/2{A}e2 |
{gBd}B3/2A/2{g}G3/2{d}B/2{g}A2{GdGe}A2 | \
{g}((3Bcd){g}((3efg){fg}f3/2d/2{G}d2:| [ | \
{gfg}f2((3agf){gef}e2((3gfe) |
{Gdc}d2{g}((3fed){gcd}c2{g}e3/2c/2 | \
{g}B3/2c/2{Gdc}d3/2B/2{g}A3/2d/2{g}f/2a3/2 | \
g3/2f/2{gef}e3/2d/2{g}f/2a3/2{a}a2 |
{gfg}f2((3agf){gef}e2((3gfe) | \
{Gdc}d2{g}((3fed){gcd}c2{g}e3/2c/2 | \
{g}B3/2c/2{Gdc}d3/2B/2{g}A2{GdGe}A3/2d/2 |
{g}c2{GdG}e/2a3/2f/2d3/2{gdc}d2|]
